report_00007_2020-12-11T15:55:29.892Z/total-byte-weight/samples/pages+cached+noadtech/raw/values.svg

<svg width="640" height="490" xmlns="http://www.w3.org/2000/svg" xmlns:xlink="http://www.w3.org/1999/xlink"><path fill="#fff" d="M0 0h640v490H0z"/><defs><path id="d" stroke-width=".222" stroke="currentColor" d="M-1-1h2v2h-2z"/><path id="b" stroke-width=".222" stroke="currentColor" d="M0-1.33l-1.33 2h2.66z"/><path id="f" stroke-width=".222" stroke="currentColor" d="M0 1.33L1.265.411.782-1.067l-1.564-.009-.483 1.487z"/><use xlink:href="#b" id="c" stroke="currentColor" transform="rotate(180)"/><use xlink:href="#d" id="e" stroke="currentColor" transform="rotate(45)"/><circle id="a" stroke-width=".222" stroke="currentColor" cx="0" cy="0" r="1"/></defs><g fill="none" color="#000" stroke="currentColor"><path stroke="#000" d="M95.4 379.6h9m510.6 0h-9"/><text transform="translate(87.1 383.5)" stroke="none" fill="#000" font-family="Arial" font-size="12" text-anchor="end"><tspan>6.828x10</tspan><tspan font-size="9.6" dy="-6">6</tspan></text></g><g fill="none" color="#000" stroke="currentColor"><path stroke="#000" d="M95.4 306h9m510.6 0h-9"/><text transform="translate(87.1 309.9)" stroke="none" fill="#000" font-family="Arial" font-size="12" text-anchor="end"><tspan>6.83x10</tspan><tspan font-size="9.6" dy="-6">6</tspan></text></g><g fill="none" color="#000" stroke="currentColor"><path stroke="#000" d="M95.4 232.4h9m510.6 0h-9"/><text transform="translate(87.1 236.3)" stroke="none" fill="#000" font-family="Arial" font-size="12" text-anchor="end"><tspan>6.832x10</tspan><tspan font-size="9.6" dy="-6">6</tspan></text></g><g fill="none" color="#000" stroke="currentColor"><path stroke="#000" d="M95.4 158.7h9m510.6 0h-9"/><text transform="translate(87.1 162.6)" stroke="none" fill="#000" font-family="Arial" font-size="12" text-anchor="end"><tspan>6.834x10</tspan><tspan font-size="9.6" dy="-6">6</tspan></text></g><g fill="none" color="#000" stroke="currentColor"><path stroke="#000" d="M95.4 85.1h9m510.6 0h-9"/><text transform="translate(87.1 89)" stroke="none" fill="#000" font-family="Arial" font-size="12" text-anchor="end"><tspan>6.836x10</tspan><tspan font-size="9.6" dy="-6">6</tspan></text></g><g fill="none" color="#000" stroke="currentColor"><path stroke="#000" d="M95.4 418v-9m0-390.9v9"/><text transform="translate(95.4 439.9)" stroke="none" fill="#000" font-family="Arial" font-size="12" text-anchor="middle"><tspan>0</tspan></text></g><g fill="none" color="#000" stroke="currentColor"><path stroke="#000" d="M147.9 418v-9m0-390.9v9"/><text transform="translate(147.9 439.9)" stroke="none" fill="#000" font-family="Arial" font-size="12" text-anchor="middle"><tspan>10</tspan></text></g><g fill="none" color="#000" stroke="currentColor"><path stroke="#000" d="M200.4 418v-9m0-390.9v9"/><text transform="translate(200.4 439.9)" stroke="none" fill="#000" font-family="Arial" font-size="12" text-anchor="middle"><tspan>20</tspan></text></g><g fill="none" color="#000" stroke="currentColor"><path stroke="#000" d="M252.9 418v-9m0-390.9v9"/><text transform="translate(252.9 439.9)" stroke="none" fill="#000" font-family="Arial" font-size="12" text-anchor="middle"><tspan>30</tspan></text></g><g fill="none" color="#000" stroke="currentColor"><path stroke="#000" d="M305.3 418v-9m0-390.9v9"/><text transform="translate(305.3 439.9)" stroke="none" fill="#000" font-family="Arial" font-size="12" text-anchor="middle"><tspan>40</tspan></text></g><g fill="none" color="#000" stroke="currentColor"><path stroke="#000" d="M357.8 418v-9m0-390.9v9"/><text transform="translate(357.8 439.9)" stroke="none" fill="#000" font-family="Arial" font-size="12" text-anchor="middle"><tspan>50</tspan></text></g><g fill="none" color="#000" stroke="currentColor"><path stroke="#000" d="M410.3 418v-9m0-390.9v9"/><text transform="translate(410.3 439.9)" stroke="none" fill="#000" font-family="Arial" font-size="12" text-anchor="middle"><tspan>60</tspan></text></g><g fill="none" color="#000" stroke="currentColor"><path stroke="#000" d="M462.8 418v-9m0-390.9v9"/><text transform="translate(462.8 439.9)" stroke="none" fill="#000" font-family="Arial" font-size="12" text-anchor="middle"><tspan>70</tspan></text></g><g fill="none" color="#000" stroke="currentColor"><path stroke="#000" d="M515.3 418v-9m0-390.9v9"/><text transform="translate(515.3 439.9)" stroke="none" fill="#000" font-family="Arial" font-size="12" text-anchor="middle"><tspan>80</tspan></text></g><g fill="none" color="#000" stroke="currentColor"><path stroke="#000" d="M567.8 418v-9m0-390.9v9"/><text transform="translate(567.8 439.9)" stroke="none" fill="#000" font-family="Arial" font-size="12" text-anchor="middle"><tspan>90</tspan></text></g><path stroke="#000" d="M95.4 18.1V418H615V18.1H95.4z" fill="none" color="#000"/><text transform="translate(296.4 457.9)" stroke="none" fill="#000" font-family="Arial" font-size="12" text-anchor="end" color="#000"><tspan>raw</tspan></text><path stroke="#9400D3" d="M304.7 454h42.2M95.4 410.3l5.2-1 5.3.2 5.2-.4 5.3.1 5.2.2 5.3.3 5.2-.5h5.3l5.2.4 5.3.4 5.2-.4 5.3-.4 5.2.7 5.3.1 5.2-.8 5.3.3 5.2-.5 5.3.1 5.2.8 5.3-.9h5.2l5.3.6 5.2-.7 5.3.5h10.5l5.2.1 5.3.4 5.2-.5h10.5l5.3.1 5.2-.4 5.2.6 5.3-.1 5.2-.1 5.3-.7 5.2.4 5.3.8 5.2-.9 5.3.6 5.2.3 5.3-.3 5.2-.3 5.3.4 5.2-.5 5.3.7 5.2-.9 5.3.6 5.2-.4 5.3.1 5.2.1 5.3.5 5.2-1 5.3.5 5.2.1 5.3-.1 5.2-.3 5.3-.3 5.2-.3 5.3 1 5.2-.4 5.3.1 5.2.9 5.3-.8 5.2-.3 5.2.7 5.3-.5 5.2.5 5.3-.4h10.5l5.2.4 5.3-.4h5.2l5.3.7 5.2-.1 5.3.2 5.2-.6 5.3-.2 5.2.6 5.3-1.1 5.2.3 5.3 1 5.2-.6 5.3-.1 5.2-.4 5.3-.4 5.2 1.1 5.3-.2 5.2.3 5.3-384.1 5.2 382.6 5.3 1.2 5.2-.5 5.3-.3 5.2.1 5.3-.3 5.2 1" fill="none" color="#000"/><text transform="translate(296.4 475.9)" stroke="none" fill="#000" font-family="Arial" font-size="12" text-anchor="end" color="#000"><tspan>score p10=2731008</tspan></text><path stroke="#009E73" d="M304.7 472h42.2" fill="none" color="#000"/><text transform="translate(521.2 457.9)" stroke="none" fill="#000" font-family="Arial" font-size="12" text-anchor="end" color="#000"><tspan>score median=4096000</tspan></text><path stroke="#56B4E9" d="M529.5 454h42.2" fill="none" color="#000"/><g fill="none" color="#000" stroke="currentColor"><path stroke="#000" d="M95.4 18.1V418H615V18.1H95.4z"/></g></svg>

<?xml version="1.0" encoding="utf-8"  standalone="no"?>
<svg 
 width="640" height="490"
 viewBox="0 0 640 490"
 xmlns="http://www.w3.org/2000/svg"
 xmlns:xlink="http://www.w3.org/1999/xlink"
>

<title>Gnuplot</title>
<desc>Produced by GNUPLOT 5.4 patchlevel 0 </desc>

<g id="gnuplot_canvas">

<rect x="0" y="0" width="640" height="490" fill="#ffffff"/>
<defs>

	<circle id='gpDot' r='0.5' stroke-width='0.5' stroke='currentColor'/>
	<path id='gpPt0' stroke-width='0.222' stroke='currentColor' d='M-1,0 h2 M0,-1 v2'/>
	<path id='gpPt1' stroke-width='0.222' stroke='currentColor' d='M-1,-1 L1,1 M1,-1 L-1,1'/>
	<path id='gpPt2' stroke-width='0.222' stroke='currentColor' d='M-1,0 L1,0 M0,-1 L0,1 M-1,-1 L1,1 M-1,1 L1,-1'/>
	<rect id='gpPt3' stroke-width='0.222' stroke='currentColor' x='-1' y='-1' width='2' height='2'/>
	<rect id='gpPt4' stroke-width='0.222' stroke='currentColor' fill='currentColor' x='-1' y='-1' width='2' height='2'/>
	<circle id='gpPt5' stroke-width='0.222' stroke='currentColor' cx='0' cy='0' r='1'/>
	<use xlink:href='#gpPt5' id='gpPt6' fill='currentColor' stroke='none'/>
	<path id='gpPt7' stroke-width='0.222' stroke='currentColor' d='M0,-1.33 L-1.33,0.67 L1.33,0.67 z'/>
	<use xlink:href='#gpPt7' id='gpPt8' fill='currentColor' stroke='none'/>
	<use xlink:href='#gpPt7' id='gpPt9' stroke='currentColor' transform='rotate(180)'/>
	<use xlink:href='#gpPt9' id='gpPt10' fill='currentColor' stroke='none'/>
	<use xlink:href='#gpPt3' id='gpPt11' stroke='currentColor' transform='rotate(45)'/>
	<use xlink:href='#gpPt11' id='gpPt12' fill='currentColor' stroke='none'/>
	<path id='gpPt13' stroke-width='0.222' stroke='currentColor' d='M0,1.330 L1.265,0.411 L0.782,-1.067 L-0.782,-1.076 L-1.265,0.411 z'/>
	<use xlink:href='#gpPt13' id='gpPt14' fill='currentColor' stroke='none'/>
	<filter id='textbox' filterUnits='objectBoundingBox' x='0' y='0' height='1' width='1'>
	  <feFlood flood-color='#FFFFFF' flood-opacity='1' result='bgnd'/>
	  <feComposite in='SourceGraphic' in2='bgnd' operator='atop'/>
	</filter>
	<filter id='greybox' filterUnits='objectBoundingBox' x='0' y='0' height='1' width='1'>
	  <feFlood flood-color='lightgrey' flood-opacity='1' result='grey'/>
	  <feComposite in='SourceGraphic' in2='grey' operator='atop'/>
	</filter>
</defs>
<g fill="none" color="#FFFFFF" stroke="currentColor" stroke-width="1.00" stroke-linecap="butt" stroke-linejoin="miter">
</g>
<g fill="none" color="black" stroke="currentColor" stroke-width="1.00" stroke-linecap="butt" stroke-linejoin="miter">
	<path stroke='black'  d='M95.4,379.6 L104.4,379.6 M615.0,379.6 L606.0,379.6  '/>	<g transform="translate(87.1,383.5)" stroke="none" fill="black" font-family="Arial" font-size="12.00"  text-anchor="end">
		<text><tspan font-family="Arial" > 6.828x10</tspan><tspan font-family="Arial"  font-size="9.6" dy="-6.00px">6</tspan><tspan font-size="12.0" dy="6.00"></tspan></text>
	</g>
</g>
<g fill="none" color="black" stroke="currentColor" stroke-width="1.00" stroke-linecap="butt" stroke-linejoin="miter">
	<path stroke='black'  d='M95.4,306.0 L104.4,306.0 M615.0,306.0 L606.0,306.0  '/>	<g transform="translate(87.1,309.9)" stroke="none" fill="black" font-family="Arial" font-size="12.00"  text-anchor="end">
		<text><tspan font-family="Arial" > 6.83x10</tspan><tspan font-family="Arial"  font-size="9.6" dy="-6.00px">6</tspan><tspan font-size="12.0" dy="6.00"></tspan></text>
	</g>
</g>
<g fill="none" color="black" stroke="currentColor" stroke-width="1.00" stroke-linecap="butt" stroke-linejoin="miter">
	<path stroke='black'  d='M95.4,232.4 L104.4,232.4 M615.0,232.4 L606.0,232.4  '/>	<g transform="translate(87.1,236.3)" stroke="none" fill="black" font-family="Arial" font-size="12.00"  text-anchor="end">
		<text><tspan font-family="Arial" > 6.832x10</tspan><tspan font-family="Arial"  font-size="9.6" dy="-6.00px">6</tspan><tspan font-size="12.0" dy="6.00"></tspan></text>
	</g>
</g>
<g fill="none" color="black" stroke="currentColor" stroke-width="1.00" stroke-linecap="butt" stroke-linejoin="miter">
	<path stroke='black'  d='M95.4,158.7 L104.4,158.7 M615.0,158.7 L606.0,158.7  '/>	<g transform="translate(87.1,162.6)" stroke="none" fill="black" font-family="Arial" font-size="12.00"  text-anchor="end">
		<text><tspan font-family="Arial" > 6.834x10</tspan><tspan font-family="Arial"  font-size="9.6" dy="-6.00px">6</tspan><tspan font-size="12.0" dy="6.00"></tspan></text>
	</g>
</g>
<g fill="none" color="black" stroke="currentColor" stroke-width="1.00" stroke-linecap="butt" stroke-linejoin="miter">
	<path stroke='black'  d='M95.4,85.1 L104.4,85.1 M615.0,85.1 L606.0,85.1  '/>	<g transform="translate(87.1,89.0)" stroke="none" fill="black" font-family="Arial" font-size="12.00"  text-anchor="end">
		<text><tspan font-family="Arial" > 6.836x10</tspan><tspan font-family="Arial"  font-size="9.6" dy="-6.00px">6</tspan><tspan font-size="12.0" dy="6.00"></tspan></text>
	</g>
</g>
<g fill="none" color="black" stroke="currentColor" stroke-width="1.00" stroke-linecap="butt" stroke-linejoin="miter">
	<path stroke='black'  d='M95.4,418.0 L95.4,409.0 M95.4,18.1 L95.4,27.1  '/>	<g transform="translate(95.4,439.9)" stroke="none" fill="black" font-family="Arial" font-size="12.00"  text-anchor="middle">
		<text><tspan font-family="Arial" > 0</tspan></text>
	</g>
</g>
<g fill="none" color="black" stroke="currentColor" stroke-width="1.00" stroke-linecap="butt" stroke-linejoin="miter">
	<path stroke='black'  d='M147.9,418.0 L147.9,409.0 M147.9,18.1 L147.9,27.1  '/>	<g transform="translate(147.9,439.9)" stroke="none" fill="black" font-family="Arial" font-size="12.00"  text-anchor="middle">
		<text><tspan font-family="Arial" > 10</tspan></text>
	</g>
</g>
<g fill="none" color="black" stroke="currentColor" stroke-width="1.00" stroke-linecap="butt" stroke-linejoin="miter">
	<path stroke='black'  d='M200.4,418.0 L200.4,409.0 M200.4,18.1 L200.4,27.1  '/>	<g transform="translate(200.4,439.9)" stroke="none" fill="black" font-family="Arial" font-size="12.00"  text-anchor="middle">
		<text><tspan font-family="Arial" > 20</tspan></text>
	</g>
</g>
<g fill="none" color="black" stroke="currentColor" stroke-width="1.00" stroke-linecap="butt" stroke-linejoin="miter">
	<path stroke='black'  d='M252.9,418.0 L252.9,409.0 M252.9,18.1 L252.9,27.1  '/>	<g transform="translate(252.9,439.9)" stroke="none" fill="black" font-family="Arial" font-size="12.00"  text-anchor="middle">
		<text><tspan font-family="Arial" > 30</tspan></text>
	</g>
</g>
<g fill="none" color="black" stroke="currentColor" stroke-width="1.00" stroke-linecap="butt" stroke-linejoin="miter">
	<path stroke='black'  d='M305.3,418.0 L305.3,409.0 M305.3,18.1 L305.3,27.1  '/>	<g transform="translate(305.3,439.9)" stroke="none" fill="black" font-family="Arial" font-size="12.00"  text-anchor="middle">
		<text><tspan font-family="Arial" > 40</tspan></text>
	</g>
</g>
<g fill="none" color="black" stroke="currentColor" stroke-width="1.00" stroke-linecap="butt" stroke-linejoin="miter">
	<path stroke='black'  d='M357.8,418.0 L357.8,409.0 M357.8,18.1 L357.8,27.1  '/>	<g transform="translate(357.8,439.9)" stroke="none" fill="black" font-family="Arial" font-size="12.00"  text-anchor="middle">
		<text><tspan font-family="Arial" > 50</tspan></text>
	</g>
</g>
<g fill="none" color="black" stroke="currentColor" stroke-width="1.00" stroke-linecap="butt" stroke-linejoin="miter">
	<path stroke='black'  d='M410.3,418.0 L410.3,409.0 M410.3,18.1 L410.3,27.1  '/>	<g transform="translate(410.3,439.9)" stroke="none" fill="black" font-family="Arial" font-size="12.00"  text-anchor="middle">
		<text><tspan font-family="Arial" > 60</tspan></text>
	</g>
</g>
<g fill="none" color="black" stroke="currentColor" stroke-width="1.00" stroke-linecap="butt" stroke-linejoin="miter">
	<path stroke='black'  d='M462.8,418.0 L462.8,409.0 M462.8,18.1 L462.8,27.1  '/>	<g transform="translate(462.8,439.9)" stroke="none" fill="black" font-family="Arial" font-size="12.00"  text-anchor="middle">
		<text><tspan font-family="Arial" > 70</tspan></text>
	</g>
</g>
<g fill="none" color="black" stroke="currentColor" stroke-width="1.00" stroke-linecap="butt" stroke-linejoin="miter">
	<path stroke='black'  d='M515.3,418.0 L515.3,409.0 M515.3,18.1 L515.3,27.1  '/>	<g transform="translate(515.3,439.9)" stroke="none" fill="black" font-family="Arial" font-size="12.00"  text-anchor="middle">
		<text><tspan font-family="Arial" > 80</tspan></text>
	</g>
</g>
<g fill="none" color="black" stroke="currentColor" stroke-width="1.00" stroke-linecap="butt" stroke-linejoin="miter">
	<path stroke='black'  d='M567.8,418.0 L567.8,409.0 M567.8,18.1 L567.8,27.1  '/>	<g transform="translate(567.8,439.9)" stroke="none" fill="black" font-family="Arial" font-size="12.00"  text-anchor="middle">
		<text><tspan font-family="Arial" > 90</tspan></text>
	</g>
</g>
<g fill="none" color="black" stroke="currentColor" stroke-width="1.00" stroke-linecap="butt" stroke-linejoin="miter">
</g>
<g fill="none" color="black" stroke="currentColor" stroke-width="1.00" stroke-linecap="butt" stroke-linejoin="miter">
	<path stroke='black'  d='M95.4,18.1 L95.4,418.0 L615.0,418.0 L615.0,18.1 L95.4,18.1 Z  '/></g>
<g fill="none" color="black" stroke="currentColor" stroke-width="1.00" stroke-linecap="butt" stroke-linejoin="miter">
</g>
	<g id="gnuplot_plot_1" ><title>raw</title>
<g fill="none" color="black" stroke="currentColor" stroke-width="1.00" stroke-linecap="butt" stroke-linejoin="miter">
	<g transform="translate(296.4,457.9)" stroke="none" fill="black" font-family="Arial" font-size="12.00"  text-anchor="end">
		<text><tspan font-family="Arial" >raw</tspan></text>
	</g>
</g>
<g fill="none" color="black" stroke="currentColor" stroke-width="1.00" stroke-linecap="butt" stroke-linejoin="miter">
	<path stroke='rgb(148,   0, 211)'  d='M304.7,454.0 L346.9,454.0 M95.4,410.3 L100.6,409.3 L105.9,409.5 L111.1,409.1 L116.4,409.2 L121.6,409.4
		L126.9,409.7 L132.1,409.2 L137.4,409.2 L142.6,409.6 L147.9,410.0 L153.1,409.6 L158.4,409.2 L163.6,409.9
		L168.9,410.0 L174.1,409.2 L179.4,409.5 L184.6,409.0 L189.9,409.1 L195.1,409.9 L200.4,409.0 L205.6,409.0
		L210.9,409.6 L216.1,408.9 L221.4,409.4 L226.6,409.4 L231.9,409.4 L237.1,409.5 L242.4,409.9 L247.6,409.4
		L252.9,409.4 L258.1,409.4 L263.4,409.5 L268.6,409.1 L273.8,409.7 L279.1,409.6 L284.3,409.5 L289.6,408.8
		L294.8,409.2 L300.1,410.0 L305.3,409.1 L310.6,409.7 L315.8,410.0 L321.1,409.7 L326.3,409.4 L331.6,409.8
		L336.8,409.3 L342.1,410.0 L347.3,409.1 L352.6,409.7 L357.8,409.3 L363.1,409.4 L368.3,409.5 L373.6,410.0
		L378.8,409.0 L384.1,409.5 L389.3,409.6 L394.6,409.5 L399.8,409.2 L405.1,408.9 L410.3,408.6 L415.6,409.6
		L420.8,409.2 L426.1,409.3 L431.3,410.2 L436.6,409.4 L441.8,409.1 L447.0,409.8 L452.3,409.3 L457.5,409.8
		L462.8,409.4 L468.0,409.4 L473.3,409.4 L478.5,409.8 L483.8,409.4 L489.0,409.4 L494.3,410.1 L499.5,410.0
		L504.8,410.2 L510.0,409.6 L515.3,409.4 L520.5,410.0 L525.8,408.9 L531.0,409.2 L536.3,410.2 L541.5,409.6
		L546.8,409.5 L552.0,409.1 L557.3,408.7 L562.5,409.8 L567.8,409.6 L573.0,409.9 L578.3,25.8 L583.5,408.4
		L588.8,409.6 L594.0,409.1 L599.3,408.8 L604.5,408.9 L609.8,408.6 L615.0,409.6  '/></g>
	</g>
	<g id="gnuplot_plot_2" ><title>score p10=2731008</title>
<g fill="none" color="black" stroke="currentColor" stroke-width="1.00" stroke-linecap="butt" stroke-linejoin="miter">
	<g transform="translate(296.4,475.9)" stroke="none" fill="black" font-family="Arial" font-size="12.00"  text-anchor="end">
		<text><tspan font-family="Arial" >score p10=2731008</tspan></text>
	</g>
</g>
<g fill="none" color="black" stroke="currentColor" stroke-width="1.00" stroke-linecap="butt" stroke-linejoin="miter">
	<path stroke='rgb(  0, 158, 115)'  d='M304.7,472.0 L346.9,472.0  '/></g>
	</g>
	<g id="gnuplot_plot_3" ><title>score median=4096000</title>
<g fill="none" color="black" stroke="currentColor" stroke-width="1.00" stroke-linecap="butt" stroke-linejoin="miter">
	<g transform="translate(521.2,457.9)" stroke="none" fill="black" font-family="Arial" font-size="12.00"  text-anchor="end">
		<text><tspan font-family="Arial" >score median=4096000</tspan></text>
	</g>
</g>
<g fill="none" color="black" stroke="currentColor" stroke-width="1.00" stroke-linecap="butt" stroke-linejoin="miter">
	<path stroke='rgb( 86, 180, 233)'  d='M529.5,454.0 L571.7,454.0  '/></g>
	</g>
<g fill="none" color="#FFFFFF" stroke="rgb( 86, 180, 233)" stroke-width="2.00" stroke-linecap="butt" stroke-linejoin="miter">
</g>
<g fill="none" color="black" stroke="currentColor" stroke-width="2.00" stroke-linecap="butt" stroke-linejoin="miter">
</g>
<g fill="none" color="black" stroke="black" stroke-width="1.00" stroke-linecap="butt" stroke-linejoin="miter">
</g>
<g fill="none" color="black" stroke="currentColor" stroke-width="1.00" stroke-linecap="butt" stroke-linejoin="miter">
	<path stroke='black'  d='M95.4,18.1 L95.4,418.0 L615.0,418.0 L615.0,18.1 L95.4,18.1 Z  '/></g>
<g fill="none" color="black" stroke="currentColor" stroke-width="1.00" stroke-linecap="butt" stroke-linejoin="miter">
</g>
</g>
</svg>
